!!!OTL: ZU FRANKFURTH  STAND EIN SCHIENES HAUS
!!!ARE: Europa, Mitteleuropa, Deutschland, Westfalen
!!!SCT: E0209B
!!!YEM: Copyright 1995, estate of Helmut Schaffrath.
**kern
*ICvox
*Ivox
*M2/4
*k[f#c#]
*D:
{16d
16e
=1
8f#
8f#
8f#
8f#
=2
8e
8d
8d}
{16d
16e
=3
8f#
8f#
8a
8f#
=4
4e
8d}
{16d
16e
=5
8f#
8f#
8f#
8f#
=6
8e
8d
8e}
{16d
16e
=7
8f#
8f#
8f#
8f#
=8
8e
8d
8e}
{16d
16e
=9
8f#
8f#
8a
8f#
=10
4e
8d}
==
!!!AGN: erzaehlendes Volks - Lied, Mahn -, Moral - Lied, Strafe; Geiz
!!!ONB: ESAC (Essen Associative Code) Database: ERK1
!!!AMT: simple duple
!!!AIN: vox
!!!EED: Helmut Schaffrath
!!!EEV: 1.0
*-
